X:1
T:To Do Thy Will
T:To Do Thy Will
T:Mrs. W. H. Pike
T:W. H. Pike, 1905
T:Public Domain Courtesy of the Cyber Hymnal™
C:Mrs. W. H. Pike
Z:Public Domain
Z:Courtesy of the Cyber Hymnal™
%%score ( 1 2 ) ( 3 4 )
L:1/8
Q:1/4=87
M:3/4
K:Eb
V:1 treble 
V:2 treble 
V:3 bass 
V:4 bass 
V:1
 GF E | B,3 C EC x | D3 A GF x | B3 F EF | G3 G FE | B,3 E FE x | E3 E EF x | G7/2 B,/ F>B, x3/2 | %8
w: 1.~O gra- cious|God, on Thee I|wait, With Thine own|self my be- ing|fill; As day by|day my life I|live, To do Thy|will, Thy bless- èd|
w: 2.~In tri- als|oft I find my-|self, With soul op-|pressed and bo- dy|ill; There is a|place where peace is|found, ’Tis in Thy|will, Thy ho- ly|
w: 3.~And when the|glimpse of glo- ry|comes, That gives my|soul a hap- py|thrill, My soul shall|an- swer with de-|light, “I love, dear|Lord, to do Thy|
 E3 ||"^Refrain" [GB][FB] [EB] | [B,B]3 [B,E] [B,D][B,E] | [DF]3 [AB] [GB][FB] | [FB]3 [DF] E[DF] | %13
w: will.|||||
w: will.|To do Thy|will, yes, that is|all; To do Thy|will, o- bey Thy|
w: will.”|||||
 [EG]3 [GB] [FB][EB] | [B,B]3 [_DE] [DF][DE] | [CE]3 [CE] [CE][EF] | %16
w: |||
w: call; To fol- low,|Lord, where Thou dost|lead, To do Thy|
w: |||
"^ad lib." [EG]7/2 B,/ [DF]>B, | [B,E]3 |] %18
w: ||
w: will is all I|need.|
w: ||
V:2
 x3 | x7 | x7 | x6 | x6 | x7 | x7 | x15/2 | x3 || x3 | x6 | x6 | x4 E x | x6 | x6 | x6 | %16
 x7/2 B,/ x B,/ x/ | x3 |] %18
V:3
 B,A, G, | G,3 z G,G,G, | A,3 z CB,A, | D3 A, G,A, | B,3 B, A,G, | G,3 z D=D x | C3 z CC_C | %7
 B,7/2 z3/2 B,<A,A,/ | G,3 || [E,B,][E,A,] [E,G,] | [E,G,]3 [G,B,] [F,B,][E,G,] | %11
 [B,,B,]3 [B,,D] [B,,D][B,,D] | [B,,D]3 [A,B,] [G,B,][F,B,] | [E,B,]3 [E,B,] [E,A,][E,G,] | %14
 [E,G,]3 [E,G,] [E,G,][B,,G,] | [A,,A,]3 [A,,A,] [A,,A,][A,,_C] | %16
 [B,,B,]7/2 [B,,G,]/ [B,,A,]>[B,,A,] | [E,G,]3 |] %18
V:4
 x3 | (E,,B,, E,2) E,2 x | (B,,F, F,2) x3 | (B,,F, B,) E,2 x | (E,B,, E,,) x3 | %5
 (E,,B,, E,2) _D E,2 | (A,E, A,,2) A,,2 x | (E,,B,, E,2) B,,2 x3/2 | (E,B,, E,,) || x3 | x6 | x6 | %12
 x6 | x6 | x6 | x6 | x6 | x3 |] %18

